img/side-hustle-logo.svg

<svg width="118" height="40" viewBox="0 0 118 40" fill="none" xmlns="http://www.w3.org/2000/svg">
<rect width="39.6581" height="40" rx="19.8291" fill="#52A350"/>
<path d="M43.2556 24.4718C43.2556 30.7778 48.1888 35.6253 54.6665 35.6253C58.1841 35.6253 61.187 34.3812 63.2461 32.1076L60.0287 28.8903C58.7418 30.3059 56.7685 31.0352 54.7094 31.0352C51.5349 31.0352 49.1326 29.405 48.2746 26.7454H64.2327C64.3185 25.8874 64.4472 24.9865 64.4472 24.1715C64.4472 17.7796 60.2861 13.3182 54.1946 13.3182C47.9743 13.3182 43.2556 18.1657 43.2556 24.4718ZM54.1088 17.8654C56.983 17.8654 59.2566 19.753 59.6855 22.7987H48.1888C48.6178 19.8388 51.1488 17.8654 54.1088 17.8654ZM73.1861 35.1963V23.6138C73.1861 20.3535 75.8457 18.0799 79.0631 18.0799C79.2347 18.0799 79.4492 18.0799 79.6208 18.1228V13.3182C76.8753 13.3182 74.6446 14.4765 73.1861 16.1924V13.7472H68.1241V35.1963H73.1861ZM87.9323 35.1963V23.6138C87.9323 20.3535 90.592 18.0799 93.8093 18.0799C93.9809 18.0799 94.1954 18.0799 94.367 18.1228V13.3182C91.6215 13.3182 89.3908 14.4765 87.9323 16.1924V13.7472H82.8703V35.1963H87.9323ZM95.4539 24.4718C95.4539 30.6062 99.9582 35.6253 106.093 35.6253C108.795 35.6253 111.283 34.2096 112.699 32.4508V35.1963H117.761V13.7472H112.699V16.4069C111.283 14.7339 108.795 13.3182 106.093 13.3182C99.9582 13.3182 95.4539 18.3373 95.4539 24.4718ZM106.607 18.3802C109.953 18.3802 112.699 21.1257 112.699 24.4718C112.699 27.8178 109.953 30.5633 106.607 30.5633C103.261 30.5633 100.516 27.8178 100.516 24.4718C100.516 21.1257 103.261 18.3802 106.607 18.3802Z" fill="#52A350"/>
<path fill-rule="evenodd" clip-rule="evenodd" d="M14.4629 14.7009V18.5142H17.6202V25.8583C17.6202 30.1825 19.2675 31.967 23.1798 31.967C24.1064 31.967 25.2389 31.8297 26.0282 31.6238V27.7802C25.1703 27.9517 24.4839 28.0547 23.7289 28.0547C22.0816 28.0547 21.6698 27.3683 21.6698 24.6572V18.5142H26.0282V14.7009H14.4629Z" fill="white"/>
<path d="M16.4177 9.03197C16.748 8.54441 17.4609 8.52912 17.8118 9.00206L20.0133 11.9694C20.4317 12.5333 20.0292 13.3333 19.3269 13.3333H15.1152C14.4297 13.3333 14.0232 12.5668 14.4076 11.9993L16.4177 9.03197Z" fill="white"/>
</svg>

<svg width="118" height="40" fill="none" xmlns="http://www.w3.org/2000/svg"><rect width="39.658" height="40" rx="19.829" fill="#52A350"/><path d="M43.256 24.472c0 6.306 4.933 11.153 11.41 11.153 3.518 0 6.521-1.244 8.58-3.517L60.03 28.89c-1.287 1.416-3.26 2.145-5.32 2.145-3.174 0-5.576-1.63-6.434-4.29h15.958c.085-.858.214-1.759.214-2.573 0-6.392-4.16-10.854-10.252-10.854-6.22 0-10.94 4.848-10.94 11.154Zm10.853-6.607c2.874 0 5.148 1.888 5.576 4.934H48.19c.429-2.96 2.96-4.934 5.92-4.934Zm19.077 17.331V23.614c0-3.26 2.66-5.534 5.877-5.534.172 0 .386 0 .558.043v-4.805c-2.746 0-4.976 1.159-6.435 2.874v-2.445h-5.062v21.45h5.062Zm14.746 0V23.614c0-3.26 2.66-5.534 5.877-5.534.172 0 .386 0 .558.043v-4.805c-2.746 0-4.976 1.159-6.435 2.874v-2.445H82.87v21.45h5.062Zm7.522-10.724c0 6.134 4.504 11.153 10.639 11.153 2.702 0 5.19-1.415 6.606-3.174v2.745h5.062V13.747h-5.062v2.66c-1.416-1.673-3.904-3.089-6.606-3.089-6.135 0-10.64 5.02-10.64 11.154Zm11.153-6.092c3.346 0 6.092 2.746 6.092 6.092 0 3.346-2.746 6.091-6.092 6.091-3.346 0-6.091-2.745-6.091-6.091s2.745-6.092 6.091-6.092Z" fill="#52A350"/><path fill-rule="evenodd" clip-rule="evenodd" d="M14.463 14.7v3.814h3.157v7.344c0 4.325 1.647 6.109 5.56 6.109.926 0 2.059-.137 2.848-.343V27.78c-.858.172-1.544.275-2.3.275-1.646 0-2.058-.687-2.058-3.398v-6.143h4.358v-3.813H14.463Z" fill="#fff"/><path d="M16.418 9.032a.855.855 0 0 1 1.394-.03l2.201 2.967a.855.855 0 0 1-.686 1.364h-4.212A.855.855 0 0 1 14.408 12l2.01-2.967Z" fill="#fff"/></svg>
